resources/haticons/SVG/publish.svg

<!-- Generated by IcoMoon.io -->
<svg version="1.1" xmlns="http://www.w3.org/2000/svg" width="24" height="24" viewBox="0 0 24 24">
<title>publish</title>
<path d="M5.016 14.016l6.984-7.031 6.984 7.031h-3.984v6h-6v-6h-3.984zM5.016 3.984h13.969v2.016h-13.969v-2.016z"></path>
</svg>

<svg xmlns="http://www.w3.org/2000/svg" width="24" height="24"><path d="M5.016 14.016L12 6.985l6.984 7.031H15v6H9v-6H5.016zm0-10.032h13.969V6H5.016V3.984z"/></svg>
